X: 33286
T: Put In Enough
R: jig
M: 6/8
K: Dmajor
|:A/B/|F>GF FED|B>cB Bcd|F>GF FED|A2A A2d|
F>GF FED|B2B Bcd|cBA dAF|ABA A2:|
|:d|cBA cec|dBB B2d|cBA cec|ABA A2d|
cBA cec|dBB B2d|cBA dAF|ABA A2:|
|:G|F2d F2d|B2B Bcd|F2d F2d|A2A A2G|
F2d F2d|B2B Bcd|cBA dAF|ABA A2:|

